src/icons/svg/feedback.svg

<?xml version="1.0" encoding="UTF-8"?>
<svg width="20px" height="20px" viewBox="0 0 20 20" version="1.1" xmlns="http://www.w3.org/2000/svg" xmlns:xlink="http://www.w3.org/1999/xlink">
    <!-- Generator: Sketch 55.1 (78136) - https://sketchapp.com -->
    <title>fankui-2</title>
    <desc>Created with Sketch.</desc>
    <g id="页面-1" stroke="none" stroke-width="1" fill="none" fill-rule="evenodd">
        <g id="侧边栏" transform="translate(-20.000000, -686.000000)" fill="#000000" fill-rule="nonzero">
            <g id="fankui-2" transform="translate(20.000000, 686.000000)">
                <path d="M3.70442715,19.2163211 C3.67093324,19.2163211 3.63743932,19.212876 3.56700639,19.1828272 C3.12105882,18.9749735 3.02727585,18.6765905 3.02727585,18.5391698 L3.02727585,14.9321621 L1.61249284,14.9321621 C0.512935398,14.9321621 0,14.4157816 0,13.283113 L0,1.64943184 C0,0.517146066 0.478484523,0.000382791461 1.61249284,0.000382791461 L17.9862331,0.000382791461 C19.0857905,0.000382791461 19.5987259,0.517146066 19.5987259,1.64943184 L19.5987259,13.25249 C19.5987259,14.3855414 19.1202414,14.9019219 17.9862331,14.9019219 L7.58665914,14.9019219 L3.94577473,19.1125856 C3.88319786,19.1791683 3.79580021,19.2168027 3.70442715,19.2165141 L3.70442715,19.2163211 Z M1.51201107,1.22377201 C1.31755496,1.22377201 1.25726593,1.2706635 1.25726593,1.51545618 L1.25726593,13.25249 C1.25726593,13.4905839 1.51870987,13.7118352 1.84733303,13.7118352 L3.74213172,13.7118352 C3.94654031,13.7118352 4.08415246,13.8492559 4.08415246,14.0538559 L4.08415246,17.1783598 L7.2078908,13.7822681 C7.27323681,13.7197481 7.35891411,13.6828546 7.4492384,13.6783412 L18.1571477,13.6783412 C18.3146648,13.6783412 18.4118929,13.6414022 18.4118929,13.3866571 L18.4118929,1.51545618 C18.4118929,1.29075984 18.2643283,1.22377201 18.1571477,1.22377201 L1.51201107,1.22377201 Z" id="形状"></path>
                <path d="M4.59708787,5.65243333 L11.6786587,5.65243333 C12.1412576,5.65243333 12.5161981,5.35232784 12.5161981,4.98255499 C12.5161981,4.61220797 12.1412576,4.31267667 11.6786587,4.31267667 L4.59708787,4.31267667 C4.13448905,4.31267667 3.75954856,4.61278215 3.75954856,4.98255499 C3.75954856,5.35213643 4.13410624,5.65243333 4.59708787,5.65243333 Z M14.5063109,5.65243333 L15.4403126,5.65243333 C15.6179754,5.65243333 15.7883616,5.58185706 15.9139882,5.4562305 C16.0396147,5.33060395 16.110191,5.16021777 16.110191,4.98255499 C16.110191,4.61259141 15.8102762,4.31267667 15.4403126,4.31267667 L14.5063109,4.31267667 C14.1363473,4.31267667 13.8364325,4.61259141 13.8364325,4.98255499 C13.8364325,5.16021777 13.9070088,5.33060395 14.0326354,5.4562305 C14.1582619,5.58185706 14.3286481,5.65243333 14.5063109,5.65243333 L14.5063109,5.65243333 Z M15.5756281,8.77023844 L4.02309784,8.77023844 C3.65281714,8.77023844 3.35264533,9.07041025 3.35264533,9.44069095 C3.35264533,9.81097165 3.65281714,10.1111457 4.02309784,10.1111457 L15.5723744,10.1111457 C15.9426551,10.1120948 16.2435981,9.81269419 16.2445517,9.44241349 C16.2455008,9.0721328 15.9461001,8.77118978 15.5758195,8.77023844 L15.5756281,8.77023844 Z" id="形状"></path>
            </g>
        </g>
    </g>
</svg>

<svg width="20" height="20" xmlns="http://www.w3.org/2000/svg"><g><path d="M3.704 19.216a.313.313 0 0 1-.137-.033c-.446-.208-.54-.506-.54-.644v-3.607H1.612c-1.1 0-1.612-.516-1.612-1.649V1.65C0 .517.478 0 1.612 0h16.374c1.1 0 1.613.517 1.613 1.65v11.602c0 1.134-.479 1.65-1.613 1.65h-10.4l-3.64 4.21a.33.33 0 0 1-.242.105zM1.512 1.224c-.194 0-.255.047-.255.291v11.737c0 .239.262.46.59.46h1.895c.205 0 .342.137.342.342v3.124l3.124-3.396a.376.376 0 0 1 .241-.104h10.708c.158 0 .255-.037.255-.291V1.515c0-.224-.148-.291-.255-.291H1.512z"/><path d="M4.597 5.652h7.082c.462 0 .837-.3.837-.67 0-.37-.375-.67-.837-.67H4.597c-.463 0-.837.3-.837.67 0 .37.374.67.837.67zm9.91 0h.933a.67.67 0 0 0 0-1.34h-.934a.67.67 0 1 0 0 1.34zm1.069 3.118H4.023a.67.67 0 1 0 0 1.341h11.55a.67.67 0 0 0 .003-1.34z"/></g></svg>
